X:94
T:Jig of Slurs, The
R:jig
C:George Stewart MacLennan (1883-1927), Scotland
Z:id:hn-jig-94
M:6/8
K:D
Add dcd|Bdd Add|Bdd Add|Bee edB|Add dcd|Bdd Add|Bdd cde|fdd dcB:|
|:A2f fef|aff fed|Bee ede|~f3 edB|A2f fef|aff fed|Bdd cde|1 fdd dcB:|2 fdd d3||
K:G
|:G2g gfg|agf gdB|G2g gfg|agf ~g3|G2g gfg|agf gdB|Bee efg|fed edB:|
|:GBB Bdd|dee edB|GBB Bdd|dee e2d|GBB Bdd|dee edB|~e3 efg|fed edB:|

